symbols/web/local_activity/materialsymbolsoutlined/local_activity_wght700_24px.svg

<svg xmlns="http://www.w3.org/2000/svg" height="24" width="24"><path d="M8.925 16.7 12 14.4l3.05 2.3-1.15-3.75 3.05-2.4h-3.725L12 6.825l-1.225 3.725h-3.7l2.975 2.4ZM4 20.85q-1.175 0-2.012-.837Q1.15 19.175 1.15 18v-4.45q.8 0 1.4-.438.6-.437.6-1.112 0-.725-.6-1.138-.6-.412-1.4-.412V6q0-1.2.838-2.025Q2.825 3.15 4 3.15h16q1.2 0 2.025.825T22.85 6v4.45q-.775 0-1.387.412-.613.413-.613 1.138 0 .675.613 1.112.612.438 1.387.438V18q0 1.175-.825 2.013-.825.837-2.025.837Zm.3-3.15h15.4v-2.125q-.9-.575-1.45-1.525-.55-.95-.55-2.05 0-1.125.55-2.062Q18.8 9 19.7 8.425V6.3H4.3v2.125Q5.25 9 5.775 9.938 6.3 10.875 6.3 12q0 1.1-.525 2.05Q5.25 15 4.3 15.575ZM12 12Z"/></svg>

<svg xmlns="http://www.w3.org/2000/svg" height="24" width="24"><path d="M4 20.85Q2.825 20.85 1.988 20.013Q1.15 19.175 1.15 18V13.55Q1.95 13.55 2.55 13.112Q3.15 12.675 3.15 12Q3.15 11.275 2.55 10.862Q1.95 10.45 1.15 10.45V6Q1.15 4.8 1.988 3.975Q2.825 3.15 4 3.15H20Q21.2 3.15 22.025 3.975Q22.85 4.8 22.85 6V10.45Q22.075 10.45 21.463 10.862Q20.85 11.275 20.85 12Q20.85 12.675 21.463 13.112Q22.075 13.55 22.85 13.55V18Q22.85 19.175 22.025 20.013Q21.2 20.85 20 20.85ZM4.3 17.7H19.7V15.575Q18.8 15 18.25 14.05Q17.7 13.1 17.7 12Q17.7 10.875 18.25 9.938Q18.8 9 19.7 8.425V6.3H4.3V8.425Q5.25 9 5.775 9.938Q6.3 10.875 6.3 12Q6.3 13.1 5.775 14.05Q5.25 15 4.3 15.575ZM8.925 16.7 12 14.4 15.05 16.7 13.9 12.95 16.95 10.55H13.225L12 6.825L10.775 10.55H7.075L10.05 12.95ZM12 12Q12 12 12 12Q12 12 12 12Q12 12 12 12Q12 12 12 12Q12 12 12 12Q12 12 12 12Q12 12 12 12Q12 12 12 12Z"/></svg>
